images/icon/yt_f.svg

<svg height="32" viewBox="0 0 32 32" width="32" xmlns="http://www.w3.org/2000/svg"><g fill="none" fill-rule="evenodd"><path d="m0 0h31.267176v31.288889h-31.267176z"/><ellipse cx="15.633588" cy="16.006978" fill="#979797" rx="15.633588" ry="15.644444"/><path d="m11.3169492 19.9233304.0118065-2.8808782.538043-.0056455.5374808-.0067745-.0061844-.4437332-.0067466-.4442977-1.5528472-.00621-1.55172268-.00621v.4505077.4499432l.52511196.0067745.52511192.0056455.0061844 2.8571673c.0028111 1.5711315.0106822 2.8707164.0168666 2.8870883.0084333.0231463.1175036.0287918.4778856.0237109l.4672035-.00621zm8.9567008-.202672c-.0219265-.0575837.0084333-.7231834.0376686-.8197208.0680284-.2269475.2125186-.3375985.440217-.3375985.1894676 0 .3097823.073391.3907418.2382384.0511618.104441.0562218.1490402.0640929.5351896l.007871.4205868h-.4638301c-.3986129 0-.4649546-.0050809-.4767612-.0366955zm.8658163 3.1038739c.4542724-.1281519.7685525-.4397813.8871806-.8795626.0196776-.0750846.0427286-.2890476.0505996-.4747832l.0134933-.3375985h-.4374059-.4379681l-.0106822.3025966c-.0123688.3438085-.0477886.4617987-.172601.5718851-.1326836.1168611-.3766863.1253292-.5352319.0180655-.1889054-.1281519-.2355695-.3443731-.2260118-1.0466683l.0067466-.4979296.9057338-.0056454.9057338-.0067746-.0118066-.7406843c-.0146177-.8264954-.0314842-.9518246-.1697899-1.2453885-.2636805-.5560778-.9940021-.8366572-1.6006357-.6147906-.4576458.1676702-.7280728.4697023-.836581.9371464-.0382308.1648474-.0427286.3127584-.0427286 1.522016 0 1.4830623.00506 1.5434688.1557345 1.8471945.2693026.5402705.9434025.8225435 1.5562205.6509215zm-3.586391-.8445608c.0556596-.0378246.0922038-.0903273.1208769-.1721865.0365442-.1078283.0399176-.245013.0348576-1.5169351-.00506-1.325554-.0078711-1.4034614-.0505997-1.4904015-.1096325-.2218665-.3856818-.2433193-.63868-.0491155l-.0832084.0632292v1.5118542 1.5118542l.0826461.0632291c.1872188.1433947.3924285.1733157.5341075.0784719zm.5481629.8535936c.1377435-.0400828.3041601-.2043657.3789352-.3720358.1439279-.3212267.1444901-.3291304.1444901-2.135113 0-1.4824978-.0044977-1.6654107-.0410419-1.8257418-.1186281-.5131723-.3772486-.7372971-.8124056-.7045534-.2434405.0191946-.435157.1162965-.6651043.3392922-.1000749.0965373-.1894676.1761383-.1995875.1761383-.0089955 0-.0174288-.491155-.0174288-1.0907029v-1.0907028h-.4250371-.4250371v3.3426768 3.3432415h.4250371.4250371v-.2252539c0-.1496047.0089955-.2252539.0264243-.2252539.0140554 0 .1096325.0790365.2125185.1761384.3305844.3121939.6167536.3980049.9732.2918703zm-4.5241712-.0220173c.1697899-.0632292.3693775-.2021075.5374808-.3737295.0770239-.0790364.1540478-.1433947.1709143-.1433947.0224888 0 .0303598.0643583.0303598.2608203v.2608203h.4250371.4250371v-2.4777924-2.4772279h-.4250371-.4250371v1.9109882 1.9115528l-.1832832.1823483c-.1450523.1450884-.2057719.1891229-.2957268.213963-.151799.0423409-.2485005.0129845-.3109068-.0948438-.0472263-.0801655-.0483508-.1174255-.0550974-2.1029338l-.0061844-2.0210747h-.4250371-.4239126v2.1458393c0 2.337785.0022489 2.3885942.1326835 2.613848.1428035.2461421.4767612.3234849.8287099.1908166zm4.0794565-8.3439899c1.6725996.03726 3.4795695.1151674 3.9597039.1699283.6212513.0711328 1.0575328.3940531 1.3594441 1.0065855.2282606.4623632.3007868.8225436.3935528 1.932441.0725262.8784336.0905172 1.4260432.0770239 2.4405324-.0151799 1.2137739-.0922038 2.283024-.2074585 2.8831364-.1214392.6345497-.4081706 1.1753848-.7797969 1.4683842-.2861692.2263829-.5914537.3274366-1.0721504.3545348-.1428035.0084682-.3232756.0197592-.401424.0259692-.2766114.0214527-1.7597435.0812946-2.5732734.104441-1.2087695.0338727-3.323835.0457282-4.4741338.0254045-.5520985-.0095972-1.2053962-.02484-1.4522101-.0338727-1.6568575-.0598419-2.79422525-.1236356-3.02136147-.1699284-.32383778-.0654873-.68590641-.2856602-.89617608-.5447869-.33620659-.4149413-.51611647-.9185163-.60326031-1.693638-.2018364-1.8020308-.19733865-3.9038356.0123688-5.6426372.09220381-.7621372.32102669-1.3125695.70502184-1.6964608.21926516-.2196084.43009705-.3415503.71064401-.4138122.60832031-.1563792 5.36806101-.2805794 8.26348561-.2162211zm-3.451522-7.35565988.4806967.00282273-.0106822.0773428c-.0084333.06266461-.3367688 1.16917477-.6802842 2.29318586-.0371064.12420012-.1332458.4442977-.2125186.71189249-.0792728.2670303-.1748499.5843051-.2130807.705118l-.0691529.2201729-.0001169 1.7243792c-.0007995.9528391-.0065173 1.0237178-.040925 1.0328635-.0865817.0237109-.9973754.01242-1.0125553-.01242-.0202399-.0333082-.0168666-1.9838147.0033733-2.2598777.0264243-.3539703-.0331709-.632856-.2861691-1.3453131-.0820839-.2308993-.2305096-.67914883-.32946-.99529459-.715704-2.28584676-.6780354-2.15204936-.6094447-2.15261391.4717012-.00395182 1.0535972-.00112909 1.0603438.00564546.0044978.00451637.1574212.56228782.3401421 1.24030757.1832832.6774552.3356444 1.24143666.3395799 1.25385667.0033733.01129092.110757-.38332674.2383806-.87730449.2670537-1.03650646.417166-1.60839156.4227882-1.61347247.0118066-.01129092.1444902-.01354911.579085-.01129092zm4.4538939 6.83778118c-.2372562-.0316146-.3761241-.1236356-.471139-.3127585-.1191903-.2371093-.1191903-.2359802-.1191903-2.5986052v-2.20455218h.47901.4784479l.0101199 2.03236558c.0106821 2.2073749.0078711 2.1560012.1394301 2.1893094.120877.029921.254685-.0350018.4211016-.2054947l.15967-.1631538.0061844-1.9267955.0056222-1.92623098.4784478-.00677455.4784479-.00564546v2.52295609 2.5235206l-.0652174.0135491c-.0781483.0163719-.80341.0152428-.8618807-.0016936-.0354198-.0095973-.041042-.042341-.041042-.2399321v-.2292056l-.1360568.1332328c-.3125934.3054194-.6499244.447685-.9619556.4059086zm-2.4107924-.96368c.1641678-.1253292.1652922-.1360556.1737255-1.5547597.0073088-1.1025584.0033733-1.2899876-.0297976-1.44015687-.0449775-.20323656-.123688-.29920938-.2777359-.34155033-.1990253-.05306733-.381184.06097096-.4452769.27945027-.0483508.16823473-.0477886 2.66917353.0011244 2.83740823.0371064.1264583.1557345.264772.2434406.2839666.1141303.0242755.2541227-.0028227.3350821-.0643582zm-.3749996.9625509c-.4284104-.0519382-.8219633-.3048548-1.0114309-.650357-.1928409-.3517122-.2108319-.5357541-.1995875-2.0848684.0089955-1.1996602.0123688-1.27474485.0595951-1.44693138.1130059-.40929585.3317089-.68818158.6707265-.85698083.4655169-.23089932.9675779-.20097838 1.4066704.0846819.2799848.18121927.4497747.4442977.5408541.83552808.0399175.17275103.043853.30541943.043853 1.51693513 0 1.473465-.0067466 1.5587115-.1574211 1.87768-.1444902.3076776-.4717012.5786596-.8129678.6740679-.1506745.0412119-.4121061.0660519-.5402918.0502446z" fill="#000"/></g></svg>

<?xml version="1.0" encoding="UTF-8"?>
<svg width="32px" height="32px" viewBox="0 0 32 32" version="1.1" xmlns="http://www.w3.org/2000/svg" xmlns:xlink="http://www.w3.org/1999/xlink">
    <!-- Generator: Sketch 64 (93537) - https://sketch.com -->
    <title>youtube</title>
    <desc>Created with Sketch.</desc>
    <g id="Live-Game" stroke="none" stroke-width="1" fill="none" fill-rule="evenodd">
        <g id="footer" transform="translate(-1305.000000, -223.000000)">
            <g id="share_01" transform="translate(1255.000000, 223.000000)">
                <g id="youtube" transform="translate(50.000000, 0.000000)">
                    <rect id="Rectangle" x="0" y="0" width="31.2671756" height="31.2888889"></rect>
                    <ellipse id="Oval" fill="#979797" cx="15.6335878" cy="16.0069778" rx="15.6335878" ry="15.6444444"></ellipse>
                    <path d="M11.3169492,19.9233304 L11.3287557,17.0424522 L11.8667987,17.0368067 L12.4042795,17.0300322 L12.3980951,16.586299 L12.3913485,16.1420013 L10.8385013,16.1357913 L9.28677862,16.1295813 L9.28677862,16.580089 L9.28677862,17.0300322 L9.81189058,17.0368067 L10.3370025,17.0424522 L10.3431869,19.8996195 C10.345998,21.470751 10.3538691,22.7703359 10.3600535,22.7867078 C10.3684868,22.8098541 10.4775571,22.8154996 10.8379391,22.8104187 L11.3051426,22.8042087 L11.3169492,19.9233304 Z M20.27365,19.7206584 C20.2517235,19.6630747 20.2820833,18.997475 20.3113186,18.9009376 C20.379347,18.6739901 20.5238372,18.5633391 20.7515356,18.5633391 C20.9410032,18.5633391 21.0613179,18.6367301 21.1422774,18.8015775 C21.1934392,18.9060185 21.1984992,18.9506177 21.2063703,19.3367671 L21.2142413,19.7573539 L20.7504112,19.7573539 C20.3517983,19.7573539 20.2854566,19.752273 20.27365,19.7206584 L20.27365,19.7206584 Z M21.1394663,22.8245323 C21.5937387,22.6963804 21.9080188,22.384751 22.0266469,21.9449697 C22.0463245,21.8698851 22.0693755,21.6559221 22.0772465,21.4701865 L22.0907398,21.132588 L21.6533339,21.132588 L21.2153658,21.132588 L21.2046836,21.4351846 C21.1923148,21.7789931 21.156895,21.8969833 21.0320826,22.0070697 C20.899399,22.1239308 20.6553963,22.1323989 20.4968507,22.0251352 C20.3079453,21.8969833 20.2612812,21.6807621 20.2708389,20.9784669 L20.2775855,20.4805373 L21.1833193,20.4748919 L22.0890531,20.4681173 L22.0772465,19.727433 C22.0626288,18.9009376 22.0457623,18.7756084 21.9074566,18.4820445 C21.6437761,17.9259667 20.9134545,17.6453873 20.3068209,17.8672539 C19.8491751,18.0349241 19.5787481,18.3369562 19.4702399,18.8044003 C19.4320091,18.9692477 19.4275113,19.1171587 19.4275113,20.3264163 C19.4275113,21.8094786 19.4325713,21.8698851 19.5832458,22.1736108 C19.8525484,22.7138813 20.5266483,22.9961543 21.1394663,22.8245323 L21.1394663,22.8245323 Z M17.5530753,21.9799715 C17.6087349,21.9421469 17.6452791,21.8896442 17.6739522,21.807785 C17.7104964,21.6999567 17.7138698,21.562772 17.7088098,20.2908499 C17.7037498,18.9652959 17.7009387,18.8873885 17.6582101,18.8004484 C17.5485776,18.5785819 17.2725283,18.5571291 17.0195301,18.7513329 L16.9363217,18.8145621 L16.9363217,20.3264163 L16.9363217,21.8382705 L17.0189678,21.9014996 C17.2061866,22.0448943 17.4113963,22.0748153 17.5530753,21.9799715 L17.5530753,21.9799715 Z M18.1012382,22.8335651 C18.2389817,22.7934823 18.4053983,22.6291994 18.4801734,22.4615293 C18.6241013,22.1403026 18.6246635,22.1323989 18.6246635,20.3264163 C18.6246635,18.8439185 18.6201658,18.6610056 18.5836216,18.5006745 C18.4649935,17.9875022 18.206373,17.7633774 17.771216,17.7961211 C17.5277755,17.8153157 17.336059,17.9124176 17.1061117,18.1354133 C17.0060368,18.2319506 16.9166441,18.3115516 16.9065242,18.3115516 C16.8975287,18.3115516 16.8890954,17.8203966 16.8890954,17.2208487 L16.8890954,16.1301459 L16.4640583,16.1301459 L16.0390212,16.1301459 L16.0390212,19.4728227 L16.0390212,22.8160642 L16.4640583,22.8160642 L16.8890954,22.8160642 L16.8890954,22.5908103 C16.8890954,22.4412056 16.8980909,22.3655564 16.9155197,22.3655564 C16.9295751,22.3655564 17.0251522,22.4445929 17.1280382,22.5416948 C17.4586226,22.8538887 17.7447918,22.9396997 18.1012382,22.8335651 L18.1012382,22.8335651 Z M13.577067,22.8115478 C13.7468569,22.7483186 13.9464445,22.6094403 14.1145478,22.4378183 C14.1915717,22.3587819 14.2685956,22.2944236 14.2854621,22.2944236 C14.3079509,22.2944236 14.3158219,22.3587819 14.3158219,22.5552439 L14.3158219,22.8160642 L14.740859,22.8160642 L15.1658961,22.8160642 L15.1658961,20.3382718 L15.1658961,17.8610439 L14.740859,17.8610439 L14.3158219,17.8610439 L14.3158219,19.7720321 L14.3158219,21.6835849 L14.1325387,21.8659332 C13.9874864,22.0110216 13.9267668,22.0550561 13.8368119,22.0798962 C13.6850129,22.1222371 13.5883114,22.0928807 13.5259051,21.9850524 C13.4786788,21.9048869 13.4775543,21.8676269 13.4708077,19.8821186 L13.4646233,17.8610439 L13.0395862,17.8610439 L12.6156736,17.8610439 L12.6156736,20.0068832 C12.6156736,22.3446682 12.6179225,22.3954774 12.7483571,22.6207312 C12.8911606,22.8668733 13.2251183,22.9442161 13.577067,22.8115478 L13.577067,22.8115478 Z M17.6565235,14.4675579 C19.3291231,14.5048179 21.136093,14.5827253 21.6162274,14.6374862 C22.2374787,14.708619 22.6737602,15.0315393 22.9756715,15.6440717 C23.2039321,16.1064349 23.2764583,16.4666153 23.3692243,17.5765127 C23.4417505,18.4549463 23.4597415,19.0025559 23.4462482,20.0170451 C23.4310683,21.230819 23.3540444,22.3000691 23.2387897,22.9001815 C23.1173505,23.5347312 22.8306191,24.0755663 22.4589928,24.3685657 C22.1728236,24.5949486 21.8675391,24.6960023 21.3868424,24.7231005 C21.2440389,24.7315687 21.0635668,24.7428597 20.9854184,24.7490697 C20.708807,24.7705224 19.2256749,24.8303643 18.412145,24.8535107 C17.2033755,24.8873834 15.08831,24.8992389 13.9380112,24.8789152 C13.3859127,24.869318 12.732615,24.8540752 12.4858011,24.8450425 C10.8289436,24.7852006 9.69157585,24.7214069 9.46443963,24.6751141 C9.14060185,24.6096268 8.77853322,24.3894539 8.56826355,24.1303272 C8.23205696,23.7153859 8.05214708,23.2118109 7.96500324,22.4366892 C7.76316684,20.6346584 7.76766459,18.5328536 7.97737204,16.794052 C8.06957585,16.0319148 8.29839873,15.4814825 8.68239388,15.0975912 C8.90165904,14.8779828 9.11249093,14.7560409 9.39303789,14.683779 C10.0013582,14.5273998 14.7610989,14.4031996 17.6565235,14.4675579 Z M14.2050015,7.11189802 L14.6856982,7.11472075 L14.675016,7.19206355 C14.6665827,7.25472816 14.3382472,8.36123832 13.9947318,9.48524941 C13.9576254,9.60944953 13.861486,9.92954711 13.7822132,10.1971419 C13.7029404,10.4641722 13.6073633,10.781447 13.5691325,10.9022599 L13.4999796,11.1224328 L13.4998627,12.846812 C13.4990632,13.7996511 13.4933454,13.8705298 13.4589377,13.8796755 C13.372356,13.9033864 12.4615623,13.8920955 12.4463824,13.8672555 C12.4261425,13.8339473 12.4295158,11.8834408 12.4497557,11.6073778 C12.47618,11.2534075 12.4165848,10.9745218 12.1635866,10.2620647 C12.0815027,10.0311654 11.933077,9.58291587 11.8341266,9.26677011 C11.1184226,6.98092335 11.1560912,7.11472075 11.2246819,7.1141562 C11.6963831,7.11020438 12.2782791,7.11302711 12.2850257,7.11980166 C12.2895235,7.12431803 12.4424469,7.68208948 12.6251678,8.36010923 C12.808451,9.03756443 12.9608122,9.60154589 12.9647477,9.6139659 C12.968121,9.62525682 13.0755047,9.23063916 13.2031283,8.73666141 C13.470182,7.70015495 13.6202943,7.12826985 13.6259165,7.12318894 C13.6377231,7.11189802 13.7704067,7.10963983 14.2050015,7.11189802 Z M18.6588954,13.9496792 C18.4216392,13.9180646 18.2827713,13.8260436 18.1877564,13.6369207 C18.0685661,13.3998114 18.0685661,13.4009405 18.0685661,11.0383155 L18.0685661,8.83376332 L18.5475761,8.83376332 L19.026024,8.83376332 L19.0361439,10.8661289 C19.046826,13.0735038 19.044015,13.0221301 19.175574,13.0554383 C19.296451,13.0853593 19.430259,13.0204365 19.5966756,12.8499436 L19.7563456,12.6867898 L19.76253,10.7599943 L19.7681522,8.83376332 L20.2466,8.82698877 L20.7250479,8.82134331 L20.7250479,11.3442994 L20.7250479,13.86782 L20.6598305,13.8813691 C20.5816822,13.897741 19.8564205,13.8966119 19.7979498,13.8796755 C19.76253,13.8700782 19.7569078,13.8373345 19.7569078,13.6397434 L19.7569078,13.4105378 L19.620851,13.5437706 C19.3082576,13.84919 18.9709266,13.9914556 18.6588954,13.9496792 L18.6588954,13.9496792 Z M16.248103,12.9859992 C16.4122708,12.86067 16.4133952,12.8499436 16.4218285,11.4312395 C16.4291373,10.3286811 16.4252018,10.1412519 16.3920309,9.99108263 C16.3470534,9.78784607 16.2683429,9.69187325 16.114295,9.6495323 C15.9152697,9.59646497 15.733111,9.71050326 15.6690181,9.92898257 C15.6206673,10.0972173 15.6212295,12.5981561 15.6701425,12.7663908 C15.7072489,12.8928491 15.825877,13.0311628 15.9135831,13.0503574 C16.0277134,13.0746329 16.1677058,13.0475347 16.2486652,12.9859992 L16.248103,12.9859992 Z M15.8731034,13.9485501 C15.444693,13.8966119 15.0511401,13.6436953 14.8616725,13.2981931 C14.6688316,12.9464809 14.6508406,12.762439 14.662085,11.2133247 C14.6710805,10.0136645 14.6744538,9.93857985 14.7216801,9.76639332 C14.834686,9.35709747 15.053389,9.07821174 15.3924066,8.90941249 C15.8579235,8.67851317 16.3599845,8.70843411 16.799077,8.99409439 C17.0790618,9.17531366 17.2488517,9.43839209 17.3399311,9.82962247 C17.3798486,10.0023735 17.3837841,10.1350419 17.3837841,11.3465576 C17.3837841,12.8200226 17.3770375,12.9052691 17.226363,13.2242376 C17.0818728,13.5319152 16.7546618,13.8028972 16.4133952,13.8983055 C16.2627207,13.9395174 16.0012891,13.9643574 15.8731034,13.9485501 L15.8731034,13.9485501 Z" id="Shape" fill="#000000"></path>
                </g>
            </g>
        </g>
    </g>
</svg>
